X: 29459
T: Night Of The Fun, The
R: slide
M: 12/8
K: Cmajor
cBc A2G EAA GED|ECC GCC EDD DEG|
cBc A2G EAA GED|ECC GCC EDD DEG|
cBc ABc Bdc BAG|cBc Adc BGG G>cd|
ece dBd cAc A2G|E>AA GED ECC C2||

